X: 42291
T: Weaving To Friday Harbor
R: reel
M: 4/4
K: Amixolydian
|:A2EA GFEG|ABde dBAG|Agfd ~e2dB|GBde dBAG|
A2EA GFEG|ABde dBAG|Agfd ~e2dB|1 GABG ~A3G:|2 GABG ABce||
|:~a3b agfg|eBdB A2BA|GEDE GABd|e~B3 eBdB|
[1 Aeab agfg|eBdB A2BA|GEDE GABd|eBdB ABce:|
[2 A2EA GFEG|ABde dBAG|Agfd ~e2dB|GABG A4||

